img/icones/email.svg

<svg width="20" height="20" viewBox="0 0 20 20" fill="none" xmlns="http://www.w3.org/2000/svg">
<path d="M16.667 3.33301H3.33299C2.41699 3.33301 1.67499 4.08301 1.67499 5.00001L1.66699 15C1.66699 15.917 2.41699 16.667 3.33299 16.667H16.667C17.583 16.667 18.333 15.917 18.333 15V5.00001C18.333 4.08301 17.583 3.33301 16.667 3.33301ZM16.333 6.87501L10.442 10.559C10.3091 10.6408 10.1561 10.6842 9.99999 10.6842C9.84391 10.6842 9.6909 10.6408 9.55799 10.559L3.66699 6.87501C3.5846 6.82751 3.51261 6.76391 3.45534 6.68798C3.39807 6.61206 3.35668 6.52537 3.33364 6.4331C3.3106 6.34083 3.30639 6.24486 3.32126 6.15093C3.33613 6.057 3.36977 5.96702 3.42017 5.88637C3.47058 5.80572 3.53671 5.73606 3.61464 5.68153C3.69256 5.627 3.78066 5.58874 3.8737 5.56901C3.96673 5.54928 4.06279 5.5485 4.15613 5.56671C4.24948 5.58492 4.3382 5.62176 4.41699 5.67501L9.99999 9.16701L15.583 5.67501C15.6618 5.62176 15.7505 5.58492 15.8439 5.56671C15.9372 5.5485 16.0332 5.54928 16.1263 5.56901C16.2193 5.58874 16.3074 5.627 16.3853 5.68153C16.4633 5.73606 16.5294 5.80572 16.5798 5.88637C16.6302 5.96702 16.6639 6.057 16.6787 6.15093C16.6936 6.24486 16.6894 6.34083 16.6663 6.4331C16.6433 6.52537 16.6019 6.61206 16.5446 6.68798C16.4874 6.76391 16.4154 6.82751 16.333 6.87501Z" fill="url(#paint0_linear_51_405)"/>
<defs>
<linearGradient id="paint0_linear_51_405" x1="9.99999" y1="3.33301" x2="9.99999" y2="16.667" gradientUnits="userSpaceOnUse">
<stop stop-color="#FFBF00"/>
<stop offset="1" stop-color="#F2A50C"/>
</linearGradient>
</defs>
</svg>

<svg width="20" height="20" fill="none" xmlns="http://www.w3.org/2000/svg">
  <path d="M16.667 3.333H3.333c-.916 0-1.658.75-1.658 1.667l-.008 10c0 .917.75 1.667 1.666 1.667h13.334c.916 0 1.666-.75 1.666-1.667V5c0-.917-.75-1.667-1.666-1.667Zm-.334 3.542-5.891 3.684a.843.843 0 0 1-.884 0L3.667 6.875a.708.708 0 1 1 .75-1.2L10 9.167l5.583-3.492a.708.708 0 1 1 .75 1.2Z" fill="url(#a)"/>
  <defs>
    <linearGradient id="a" x1="10" y1="3.333" x2="10" y2="16.667" gradientUnits="userSpaceOnUse">
      <stop stop-color="#FFBF00"/>
      <stop offset="1" stop-color="#F2A50C"/>
    </linearGradient>
  </defs>
</svg>
